public/icons/playAll.svg

<?xml version="1.0" encoding="utf-8"?><!-- Uploaded to: SVG Repo, www.svgrepo.com, Generator: SVG Repo Mixer Tools -->
<svg width="800px" height="800px" viewBox="0 0 24 24" fill="none" xmlns="http://www.w3.org/2000/svg">
<path fill-rule="evenodd" clip-rule="evenodd" d="M12 22C17.5228 22 22 17.5228 22 12C22 6.47715 17.5228 2 12 2C6.47715 2 2 6.47715 2 12C2 17.5228 6.47715 22 12 22ZM10.6935 15.8458L15.4137 13.059C16.1954 12.5974 16.1954 11.4026 15.4137 10.941L10.6935 8.15419C9.93371 7.70561 9 8.28947 9 9.21316V14.7868C9 15.7105 9.93371 16.2944 10.6935 15.8458Z" fill="#FFFFFF"/>
</svg>

<svg xmlns="http://www.w3.org/2000/svg" width="800" height="800" fill="none" viewBox="0 0 24 24"><path fill="#fff" fill-rule="evenodd" d="M12 22c5.523 0 10-4.477 10-10S17.523 2 12 2 2 6.477 2 12s4.477 10 10 10m-1.306-6.154 4.72-2.787c.781-.462.781-1.656 0-2.118l-4.72-2.787C9.934 7.706 9 8.29 9 9.214v5.573c0 .923.934 1.507 1.694 1.059" clip-rule="evenodd"/></svg>
